X:1
T:Missa Tertia 05
T:Missa Tertia 05
T:2.Gloria
T:Lajos Bardos 1899-1986
C:Lajos Bardos 1899-1986
%%score { ( 1 2 6 ) | ( 3 4 5 ) }
L:1/8
M:4/4
K:G
V:1 treble nm="Piano" snm="Pno."
V:2 treble 
V:6 treble 
V:3 bass 
V:4 bass 
V:5 bass 
V:1
 z2 BB G2 E2 | B2 G2 c>c B2 | G3 A B2 A2 | (G2 F2) E4 |[M:3/4] z6 | z6 | z2 G2 A2 | B3 G c2 | %8
w: Et in ter ra|pax ho mi ni bus|bo nae vo lun|ta * tis|||Be ne|di ci mus|
 B2 z2 z2 | z6 | z2 B2 AB | (G2 A2) F2 | E4 z2 | [Ee]3 d B2 | c2 B2 G2 | A2 B2 E2 | D2 G2 A2 | %17
w: te||Glo ri fi|ca * mus|te|Gra ti as|a gi mus|ti bi prop|ter mag nam|
 B3 A d2 | ^c2 B2 z2 |[M:4/4] z8 | z8 | z8 | z8 | B2 BB e2 d2 | B2 c2 A>G G2 | A4 B4 | c4 B4 | %27
w: glo ri am|tu am|||||Do mi ne Fi li|u ni ge ni te|Je su|Chri ste|
 E2 EE G2 A2 | B3 G E2 B2 | E2 FG F4 | E4 z2 E2 | B2 BG d2 B2 | e4 d4 | B2 e2 d3 e | c4 B4 | z8 | %36
w: Do mi ne de us|Ag nus de i|Fi li us Pa|tris Qui|tol lis pec ca ta|mun di|mi se re re|no bis||
 z8 | B3 B B2 AF | G3 E A2 G2 | F4 E2 E2 | D2 GA B->B A2 | (d2 ^c2) B2 BA | G2 A2 F4 | E4 BBBG | %44
w: ||||||||
 E2 F2 (G3 A) | B2 B2 G2 c2 | A3 G G2 E2 | (G3 A) B2 B2 |[M:2/4] e3 e |[M:4/4] d2 B4 G2 | c4 B4 | %51
w: |||||||
[M:3/4] e2 d2 B2 | c3 B A2 | B2 E2 FG | AB (A2 G2) | A2 E2 D2 | G2 AB AG | F4 E2 | E6- | E z z4 |] %60
w: |||||||||
V:2
 z2 BB G2 E2 | B2 G2 c>c B2 | G3 A B2 A2 | G2 F2 E4 |[M:3/4] x6 | x6 | z2 G2 A2 | B3 G c2 | %8
w: ||||||||
 B2 z2 z2 | x6 | z2 B2 AB | G2 A2 F2 | E4 z2 | z3 F G2 | A2 B2 G2 | A2 B2 E2 | D2 E2 F2 | G3 A B2 | %18
w: ||||||||||
 A2 B2 z2 |[M:4/4] x8 | x8 | x8 | x8 | B2 BB E2 F2 | G2 A2 A>G G2 | E4 z2 G2 | (A2 G2) F4 | %27
w: |||||||||
 E2 EE G2 A2 | B3 G E2 B2 | E2 FG F4 | E4 z2 E2 | B2 BG d2 B2 | c4 B4 | G2 G2 A2 G2 | E2 F2 G4 | %35
w: ||||||||
 x8 | x8 | F3 F F2 AF | G3 E E2 E2 | (D2 C2) B,2 E2 | D2 GA B>B A2 | d2 ^c2 B2 GF | E2 E2 (D2 C2) | %43
w: ||su sci pe de pre|ca ti o nem|no * stram Qui|se des ad dex te ram|Pa * tris mi se|re re no *|
 B,4 BBBG | E2 F2 G3 A | B2 B2 G2 c2 | A3 G G2 E2 | G3 A B2 B2 |[M:2/4] c3 c |[M:4/4] B2 G4 G2 | %50
w: bis Quo ni am tu|so lus san *|ctus Tu so lus|Do mi nus Tu|so * lus Al|tis si|mus Je su|
 A2 G2 F4 |[M:3/4] E2 F2 G2 | A3 G F2 | G2 E2 FG | AB A2 G2 | A2 E2 D2 | G2 AB AG | F4 E2 | E6- | %59
w: Chri * ste|Cum Sanc to|Spi ri tu|in glo ri a|De i Pa *|tris A *|||men|
 E z z4 |] %60
w: |
V:3
 x8 | x8 | x8 | x8 |[M:3/4] x6 | x6 | x6 | x6 | x6 | x6 | x6 | x6 | x6 | z6 | z6 | z6 | z6 | z6 | %18
 z6 |[M:4/4] x8 | x8 | x8 | x8 | x8 | x8 | x8 | x8 | x8 | x8 | x8 | x8 | z8 | z8 | G,2 z2 x4 | x8 | %35
 x8 | x8 | x8 | x8 | x8 | x8 | x8 | x8 | x8 | x8 | x8 | x8 | x8 |[M:2/4] x4 |[M:4/4] x8 | x8 | %51
[M:3/4] x6 | x6 | x6 | x6 | x6 | x6 | x6 | x6 | x6 |] %60
V:4
 z2 B,B, G,2 E,2 | B,2 G,2 C>C B,2 | G,3 A, B,2 A,2 | (G,2 F,2) E,4 |[M:3/4] z2 (B,2 A,2) | %5
w: ||||Lau *|
 D4 ^C2 | B,2 z2 z2 | x6 | z2 B,2 A,2 | D4 ^C2 | B,2 B,2 A,B, | (G,2 A,2) F,2 | E,4 z2 | x6 | x6 | %15
w: da mus|te||Ad o|ra mus|te * * *|||||
 x6 | x6 | x6 | x6 |[M:4/4] B,2 B,B, E2 D2 | B,3 C A,2 G,2 | G,2 A,2 B,2 A,G, | F,3 E, E,4 | %23
w: ||||Do mi ne de us|rex cae les tis|De us Pa ter om|ni po tens|
 B,2 B,B, E2 D2 | B,2 C2 A,>G, G,2 | E4 E4 | E4 D4 | E,2 E,E, G,2 A,2 | B,3 G, E,2 B,2 | %29
w: ||||||
 E,2 F,G, F,4 | E,4 z4 | x8 | x8 | B,2 B,2 D2 B,2 | (C2 D2) E2 E,2 | B,2 B,G, D2 B,2 | %36
w: |||||* * * Qui|tol lis pec ca ta|
 [CE]4 [B,D]4 | D3 D D2 A,F, | G,3 E, C2 B,2 | A,4 G,2 E,2 | D,2 G,A, B,>B, A,2 | (D2 ^C2) B,2 DD | %42
w: mun di||||||
 G,2 C2 A,4 | G,4 B,B,B,G, | E,2 F,2 (G,3 A,) | B,2 B,2 G,2 C2 | A,3 G, G,2 E,2 | %47
w: |||||
 (G,3 A,) B,2 B,2 |[M:2/4] E3 E |[M:4/4] D2 D4 E2 | E4 D4 |[M:3/4] E2 D2 B,2 | C3 B, A,2 | %53
w: ||||||
 B,2 E,2 F,G, | A,B, (A,2 G,2) | A,2 E,2 D,2 | G,2 A,B, A,G, | F,4 E,2 | E,6- | E, z z4 |] %60
w: |||||||
V:5
 z2 B,B, G,2 E,2 | B,2 G,2 C>C B,2 | G,3 A, B,2 A,2 | G,2 F,2 E,4 |[M:3/4] z2 B,2 A,2 | D4 ^C2 | %6
 B,2 z2 z2 | x6 | z2 B,2 A,2 | D4 ^C2 | B,2 B,2 A,B, | G,2 A,2 F,2 | E,4 z2 | x6 | x6 | x6 | x6 | %17
 x6 | x6 |[M:4/4] B,2 B,B, C2 B,2 | B,3 C A,2 G,2 | G,2 A,2 B,2 A,G, | F,3 E, E,4 | %23
 B,2 B,B, E,2 F,2 | G,2 A,2 A,>G, G,2 | C4 B,4 | A,4 B,4 | E,2 E,E, G,2 A,2 | B,3 G, E,2 B,2 | %29
 E,2 F,G, F,4 | E,4 z4 | x8 | x8 | x2 E,2 F,2 G,2 | A,4 E,2 E,2 | B,2 B,G, D2 B,2 | x8 | %37
 B,3 B, B,2 A,F, | G,3 E, C,2 C,2 | D,4 E,2 E,2 | D,2 G,A, B,>B, A,2 | D2 ^C2 B,2 B,,B,, | %42
 C,2 A,,2 D,4 | E,4 B,B,B,G, | E,2 F,2 G,3 A, | B,2 B,2 G,2 C2 | A,3 G, G,2 E,2 | G,3 A, B,2 B,2 | %48
[M:2/4] C3 C |[M:4/4] B,2 G,4 C2 | A,4 B,4 |[M:3/4] E,2 F,2 G,2 | A,3 G, F,2 | G,2 E,2 F,G, | %54
 A,B, A,2 G,2 | A,2 E,2 C,2 | G,2 A,B, A,G, | F,4 E,2 | E,6- | E, z z4 |] %60
V:6
 x8 | x8 | x8 | x8 |[M:3/4] x6 | x6 | x6 | x6 | x6 | x6 | x6 | x6 | x6 | x6 | x6 | x6 | x6 | x6 | %18
 x6 |[M:4/4] x8 | x8 | x8 | x8 | x8 | x8 | x4 (F2 z2) | x8 | x8 | x8 | x8 | x8 | x8 | x8 | x8 | %34
 x8 | x8 | x8 | x8 | x8 | x8 | x8 | x8 | x8 | x8 | x8 | x8 | x8 | x8 |[M:2/4] x4 |[M:4/4] x8 | x8 | %51
[M:3/4] x6 | x6 | x6 | x6 | x6 | x6 | x6 | x6 | x6 |] %60

